packages/foundations/assets/icons/functional/images/business & payment/shopping_cart_disabled_12.svg

<svg width="12" height="12" viewBox="0 0 12 12" fill="none" xmlns="http://www.w3.org/2000/svg">
<g clip-path="url(#clip0_2202_1409)">
<path fill-rule="evenodd" clip-rule="evenodd" d="M4.94424 9.59461C5.04419 9.72485 5.09833 9.88445 5.09824 10.0486C5.09848 10.1888 5.05954 10.3262 4.98581 10.4454C4.91208 10.5646 4.8065 10.6609 4.68098 10.7233C4.55547 10.7857 4.41501 10.8117 4.27547 10.7985C4.13592 10.7854 4.00284 10.7334 3.89124 10.6486L4.94424 9.59461ZM8.39824 9.29861C8.81124 9.29861 9.14824 9.63561 9.14824 10.0486C9.14824 10.4606 8.81124 10.7986 8.39824 10.7986C8.19949 10.7981 8.00903 10.7189 7.86849 10.5784C7.72796 10.4378 7.64877 10.2474 7.64824 10.0486C7.64824 9.63561 7.98624 9.29861 8.39824 9.29861ZM2.34224 1.19861C2.90424 1.19861 3.35424 1.59261 3.48524 2.15461L3.54224 2.39861H8.74724L9.48724 1.65861L9.77724 1.37161C9.83338 1.31607 9.89993 1.27215 9.97307 1.24238C10.0462 1.21261 10.1245 1.19758 10.2035 1.19814C10.2825 1.19869 10.3605 1.21483 10.4333 1.24563C10.506 1.27643 10.5719 1.32128 10.6272 1.37761C10.8412 1.59461 10.8802 1.98361 10.6202 2.22561C10.5262 2.32161 7.92724 4.92061 2.82424 10.0246C2.76856 10.0804 2.70243 10.1247 2.62963 10.155C2.55683 10.1852 2.47879 10.2009 2.39995 10.2009C2.32111 10.201 2.24303 10.1856 2.17016 10.1555C2.09729 10.1254 2.03105 10.0813 1.97524 10.0256C1.91943 9.96993 1.87513 9.90381 1.84488 9.83101C1.81462 9.7582 1.799 9.68016 1.79891 9.60132C1.79882 9.52248 1.81425 9.4444 1.84434 9.37153C1.87442 9.29866 1.91856 9.23243 1.97424 9.17661C2.41524 8.73261 2.85724 8.28961 3.30024 7.84861L2.32324 2.39861H1.79824C1.63944 2.39757 1.48743 2.33402 1.37514 2.22172C1.26284 2.10942 1.19929 1.95742 1.19824 1.79861C1.19824 1.47961 1.47924 1.19861 1.79824 1.19861H2.34224ZM8.69824 7.79861C9.03624 7.79861 9.29824 8.06161 9.29824 8.39861C9.29824 8.67961 9.03524 8.99861 8.69824 8.99861H5.54024L6.74024 7.79861H8.69824ZM10.1972 4.34161L9.84224 5.86861C9.72924 6.31861 9.39224 6.74961 8.79224 6.80561L7.62424 6.91561L10.1972 4.34161ZM7.54724 3.59861H3.74824L4.19824 6.03561L5.21024 5.93761L7.54724 3.59861Z" fill="#1A1C1F"/>
</g>
<defs>
<clipPath id="clip0_2202_1409">
<rect width="12" height="12" fill="white"/>
</clipPath>
</defs>
</svg>

<svg xmlns="http://www.w3.org/2000/svg" width="12" height="12" fill="none"><g clip-path="url(#a)"><path fill="#1A1C1F" fill-rule="evenodd" d="M4.944 9.595a.745.745 0 0 1 .042.85.75.75 0 0 1-1.095.204zm3.454-.296c.413 0 .75.337.75.75 0 .412-.337.75-.75.75a.75.75 0 0 1-.75-.75c0-.413.338-.75.75-.75m-6.056-8.1c.562 0 1.012.394 1.143.956l.057.244h5.205l.74-.74.29-.287a.6.6 0 0 1 .85.006c.214.217.253.606-.007.848q-.141.143-7.796 7.799a.601.601 0 0 1-.85-.848Q2.635 8.51 3.3 7.849l-.977-5.45h-.525a.604.604 0 0 1-.6-.6c0-.32.281-.6.6-.6zm6.356 6.6c.338 0 .6.263.6.6 0 .28-.263.6-.6.6H5.54l1.2-1.2zm1.5-3.457-.356 1.527c-.113.45-.45.88-1.05.937l-1.168.11zm-2.65-.743h-3.8l.45 2.437 1.012-.098z" clip-rule="evenodd"/></g><defs><clipPath id="a"><path fill="#fff" d="M0 0h12v12H0z"/></clipPath></defs></svg>
